!!!!SEGMENT: pl-wnifc--6433-n_stefani-jozef--polski-taniec-grany-na-balu-w-dzien-zakonczenia-seymu-krolestwa-polskiego.krn
!!!cenid: 18xx:3936
!!!COM: Damse, Józef
!!!COM-rismID: pe30008765
!!!CDT: 1789-1852
!!!CNT:
!!!OTL: Polski Taniec grany na Balu w Dzień zakończenia Seymu Królestwa Polskiego
!!!PDT: 1820
!!!AGN:
!!!YEC: Copyright 2022 Narodowy Instytut Fryderyka Chopina (https://polishscores.org)
!!!YEM: License CC-BY-4.0 (https://creativecommons.org/licenses/by/4.0)
!!!SMS-siglum: PL-Wnifc
!!!SMS-shelfmark: 6433/n
!!!SMS-shelfwork: W
!!!SMS-variant:
!!!SMS-altvar:
!!!NIFC-rismSourceID: 1001011449
!!!NIFC-rismChildID: 1001011449
!!!NIFC-islandoraID: nifc:212707
!!!URL-pdf-islandora: https://repozytorium.nifc.pl/islandora/object/nifc%3A212707/datastream/PDF/view
!!!URL-scan: https://polish.musicsources.pl/pl/lokalizacje/galeria/druki-muzyczne/16852 @EN{Scan on Polish Music Sources Website} @PL{Skany w portalu Dziedzictwo Muzyki Polskiej w otwartym dostępie}
!!!IIIF:
!!!ONB-nifc:
!!!AIN: 1 forte
!!!key: B-
**kern	**kern	**dynam
*part1	*part1	*
*staff2	*staff1	*
*>[A,B,B,C,B,D,D,E,D]	*>[A,B,B,C,B,D,D,E,D]	*
*>A	*>A	*
*I"Forte Piano	*I"Forte Piano	*
*I'	*I'	*
*Iforte	*Iforte	*
*ICklav	*ICklav	*
*clefF4	*clefG2	*
*k[b-e-]	*k[b-e-]	*
*B-:	*B-:	*
*M3/4	*M3/4	*
=1	=1	=1
!	!LO:TX:a:t=POLONEZ:rj	!LO:DY:rj
8.B-L 8.BB-\	8.bb-\L	ff
16B-Jk 16BB-TT\	16bb-TT\Jk	.
8dL 8D\	8ddd\L	.
8B- 8BB-\	8bb-\J	.
8F 8FF\	8ff\L	.
8DJ 8DD\	8dd\J	.
=2	=2	=2
8BB-L 8BBB-/	8b-\L	.
8DJ 8BB-/	16b-\L	.
.	16b-\JJ	.
8DL 8BB-/	16b-\LL	.
.	16cc\	.
8D 8BB-/	16dd\	.
.	16ee-\JJ	.
8D 8BB-/	16ff\LL	.
.	16gg\	.
8DJ 8BB-/	16aa\	.
.	16bb-\JJ	.
=3	=3	=3
*^	*	*
4r	8E-L 8C\	8.bb-\L	.
.	8E- 8C\	.	.
.	.	16cc\Jk	.
4A/	8E- 8C\	16cc\LL	.
.	.	16dd\	.
.	8E- 8C\	16ee-\	.
.	.	16ff\JJ	.
[4c/	8E- 8C\	16gg\LL	.
.	.	16aa\	.
.	8E-J 8C\	16bb-\	.
.	.	16ccc\JJ	.
=4	=4	=4	=4
4c/]	8FL 8D\	8.ccc\L	.
.	8F 8D\	.	.
.	.	16dd\Jk	.
4B-/	8F 8D\	16dd\LL	.
.	.	16ee-\	.
.	8F 8D\	16ff\	.
.	.	16gg\JJ	.
[4d/	8F 8D\	16aa\LL	.
.	.	16bb-\	.
.	8FJ 8D\	16ccc\	.
.	.	16ddd\JJ	.
=5	=5	=5	=5
4d/]	8GL 8E-\	8.ddd\L	.
.	8G 8E-\	.	.
.	.	16ee-\Jk	.
4c/	8G 8E-\	16ee-\LL	.
.	.	16ff\	.
.	8G 8E-\	16gg\	.
.	.	16aa\JJ	.
4e-/	8G 8E-\	16bb-\LL	.
.	.	16ccc\	.
.	8GJ 8E-\	16ddd\	.
.	.	16eee-\JJ	.
*v	*v	*	*
=6	=6	=6
.	16qqfff/	.
4e- 4E-\	8eee-\L	.
.	16eee-\L	.
.	16ddd\JJ	.
.	16qqddd/	.
4c 4C\	8ccc\L	.
.	16ccc\L	.
.	16bb-\JJ	.
.	16qqbb-/	.
4A 4AA\	8aa\L	.
.	16aa\L	.
.	16gg\JJ	.
!!LO:LB:g=original
=7	=7	=7
16FLL 16FF/	16ff\LL	.
16En/	16een\	.
16F/	16ff\	.
16G/JJ	16gg\JJ	.
16A\LL	16aa\LL	.
16B-\	16bb-\	.
16c\	16ccc\	.
16A\JJ	16aa\JJ	.
4F\	4ff\	.
!LO:TX:b:t=[segno]:problem:znak segno na kresce taktowej	!LO:TX:a:t=[segno]:problem:znak segno na kresce taktowej	!
=8||	=8||	=8||
*>B	*>B	*
8dL 8B-\	8ddL 8b-\	p
8F\	8ffJ 8dd\	.
8d 8B-\	8eenL 8cc#X\	.
8F\	8ff 8dd\	.
8d 8B-\	8gg 8ee-X\	.
8F\J	8ffJ 8dd\	.
=9	=9	=9
8dL 8B-\	8ddL 8b-\	.
8F\	8ffJ 8dd\	.
8d 8B-\	16eenLL 16cc#X\	.
.	16ff 16dd\	.
8F\J	16ee 16cc#\	.
.	16ffJJ 16dd\	.
8dL 8B-\	8ggL 8ee-X\	.
8F\J	8ffJ 8dd\	.
=10	=10	=10
8dL 8B-\	8ddL 8b-\	.
8F\	8ff 8dd\	.
8d 8B-\	8dd 8b-\	.
8F\J	8ffJ 8dd\	.
8dL 8B-\	8ffL 8dd\	.
8F\J	8bb-J 8dd\	.
=11	=11	=11
8e-L 8c\	8bb-L 8dd\	.
8F\J	8aaJ 8cc\	.
8e-L 8c\	4aa 4cc\	.
8F\	.	.
8e- 8c\	4r	.
8F\J	.	.
=12	=12	=12
8cL 8A\	8ccL 8a\	.
8F\	8ee- 8cc\	.
8c 8A\	8dd 8bn\	.
8F\J	8ee-J 8cc\	.
8cL 8A\	8ffL 8dd\	.
8F\J	8ee-J 8cc\	.
=13	=13	=13
8cL 8A\	8ccL 8a\	.
8F\J	8ee-J 8cc\	.
8cL 8A\	16ddLL 16bn\	.
.	16ee- 16cc\	.
8F\J	16dd 16b\	.
.	16ee-JJ 16cc\	.
8cL 8A\	8ffL 8dd\	.
8F\J	8ee-J 8cc\	.
!!LO:LB:g=original
=14	=14	=14
8cL 8A\	8aaL 8cc\	.
8F\	8gg 8ee-\	.
8c 8A\	8ff 8dd\	.
8F\	8ee- 8cc\	.
8c 8A\	8dd 8b-\	.
8F\J	8ccJ 8a\	.
=15	=15	=15
8.B-\L	8ee-L 8cc\	.
.	8ddJ 8b-\	.
16BB-\Jk	.	.
4BB-\	16ddLL 16b-\	.
.	16b-\	.
.	16cc\	.
.	16dd\JJ	.
4r	16ee-\LL	.
.	16ff\	.
.	16gg\	.
.	16aa\JJ	.
=16	=16	=16
8dL 8D\	16bb-\LL	ff
.	16ff\	.
8e-J 8E-\	16aa\	.
.	16ff\JJ	.
8dL 8D\	16bb-\LL	.
.	16ff\	.
8e-J 8E-\	16aa\	.
.	16ff\JJ	.
8dL 8D\	16bb-\LL	.
.	16ccc\	.
8cJ 8C\	16aa\	.
.	16bb-\JJ	.
=17	=17	=17
8B-L 8BB-\	16gg\LL	.
.	16dd\	.
8c 8C\	16ff#X\	.
.	16dd\JJ	.
8B- 8BB-\	16gg\LL	.
.	16dd\	.
8c 8C\	16ff#\	.
.	16dd\JJ	.
8B- 8BB-\	16gg\LL	.
.	16aa\	.
8AJ 8AA\	16ff#\	.
.	16gg\JJ	.
=18	=18	=18
8GL 8GG/	16ee-X\LL	.
.	16g\	.
8F 8FF/	16bn\	.
.	16g\JJ	.
8E- 8EE-/	16cc\LL	.
.	16g\	.
8BBn 8BBBn/	16dd\	.
.	16g\JJ	.
8C 8CC/	16ff\LL	.
.	16ee-\	.
8E-J 8EE-/	16dd\	.
.	16cc\JJ	.
=19	=19	=19
8FL 8FF/	16b-\LL	.
.	16a\	.
8E-J 8C 8FF/	16dd\	.
.	16cc\JJ	.
8r	4cc\	.
8E- 8C 8FF/	.	.
!	!LO:N:vis=8	!
4D 4BB-/	4b-\	.
!!LO:LB:g=original
=20:|!|:	=20:|!|:	=20:|!|:
*>C	*>C	*
8AL 8F\	16ff\LL	ff
.	16aa\	.
8C\	16gg\	.
.	16aa\JJ	.
8A 8F\	4.ccTT\	.
8C\	.	.
8A 8F\	.	.
8C\J	8aa\	.
=21	=21	=21
8AL 8F\	16ff\LL	.
.	16aa\	.
8C\J	16gg\	.
.	16aa\JJ	.
8AL 8F\	16cc\LL	.
.	16aa\	.
8C\J	16gg\	.
.	16ff\JJ	.
8AL 8F\	16ccc\LL	.
.	16aa\	.
8C\J	16gg\	.
.	16ff\JJ	.
=22	=22	=22
8B-L 8G 8En\	16gg\LL	.
.	16bb-\	.
8C\J	16aa\	.
.	16bb-\JJ	.
8B-L 8G 8E\	4.cc\	.
8C\	.	.
8B- 8G 8E\	.	.
8C\J	8bb-\	.
=23	=23	=23
!LO:SIC:v:s=8B-L 8G 8E\	!	!
8B-L 8G 8E-\	16gg\LL	.
.	16bb-\	.
8C\	16aa\	.
.	16bb-\JJ	.
!LO:SIC:v:s=8B- 8G 8E\	!	!
8B- 8G 8E-\	16eeen\LL	.
.	16ddd\	.
8C\	16ccc\	.
.	16bb-\JJ	.
!LO:SIC:v:s=8B- 8G 8E\	!	!
8B- 8G 8E-\	16aa\LL	.
.	16gg\	.
8C\J	16ff\	.
.	16een\JJ	.
=24	=24	=24
8c 8A 8F\	8ff'\L	p
8r	(16gg\L	.
.	16aa\JJ)	.
8c 8A 8F\	8ff'\L	.
8r	(16gg\L	.
.	16aa\JJ)	.
8c 8A 8F\	8ff'\L	.
8r	(16gg\L	.
.	16aa\JJ)	.
=25	=25	=25
8c 8B- 8G 8En\	8ccc\L	.
8r	16bb-\L	.
.	16gg\JJ	.
8c 8B- 8G 8E\	8ccc\L	.
8r	16bb-\L	.
.	16gg\JJ	.
!	!LO:SIC:v:s=12ee\L	!
!	!LO:TUP:a:problem=klamra łukowa	!
8c 8B- 8G 8E\	12ee-\L	.
.	12gg\	.
8r	.	.
.	12cc\J	.
!!LO:PB:g=original
=26	=26	=26
8c 8A 8F\	8ff'\L	.
8r	(16gg\L	.
.	16aa\JJ)	.
8c 8A 8F\	8ff'\L	.
8r	(16gg\L	.
.	16aa\JJ)	.
8c 8A 8F\	8ff'\L	.
8r	(16gg\L	.
.	16aa\JJ)	.
=27	=27	=27
8c 8B- 8G 8En\	8ccc\L	.
8r	16bb-\L	.
.	16gg\JJ	.
8c 8B- 8G 8E\	8ccc\L	.
8r	16bb-\L	.
.	16gg\JJ	.
!	!LO:SIC:v:s=12ee\L	!
!	!LO:TUP:a:problem=klamra łukowa	!
8c 8B- 8G 8E\	12ee-\L	.
.	12gg\	.
8r	.	.
.	12cc\J	.
=28	=28	=28
*	*Xtuplet	*
8c 8A 8F\	12ff\L	.
.	12gg\	<
8r	.	.
.	12aa\J	.
2c 2B- 2G 2En 2C\	12gg\L	[
.	12aa\	.
.	12bb-\J	.
.	8.ccTT\	.
.	32dd\LLL	.
!	!LO:SIC:s=32ee\JJJ	!
.	32ee-\JJJ	.
=29	=29	=29
8c 8A 8F\	12ff\L	.
.	12gg\	<
8r	.	.
.	12aa\J	.
2c 2B- 2G 2En 2C\	12gg\L	[
.	12aa\	.
.	12bb-\J	.
.	8.ccTT\	.
.	32dd\LLL	.
!	!LO:SIC:s=32ee\JJJ	!
.	32ee-\JJJ	.
=30	=30	=30
8cL 8A 8F\	16ff\LL	.
.	16gg\	.
8cJ 8A 8F\	16aa\	.
.	16bb-\JJ	.
8cL 8A 8F\	16bbn\LL	.
.	16ccc\	.
8cJ 8A 8F\	16ddd\	.
.	16ccc\JJ	.
8GL 8D 8BB-\	16bb-X\LL	.
.	16aa\	.
8GJ 8D 8BB-\	16gg\	.
.	16ff\JJ	.
=31	=31	=31
8AL 8F 8C\	16ff\LL	.
!	!LO:SIC:s=16ee\	!
.	16ee-\	.
8B-J 8G 8C\	16aa\	.
.	16gg\JJ	.
8r	4gg 4b-\	.
8B- 8G 8C\	.	.
8A 8F\	8ff 8a\	.
!	!LO:TX:b:i:t=Dal seg.	!
8r	8r	.
!!LO:LB:g=original
=32||	=32||	=32||
*>D	*>D	*
*k[b-e-a-]	*k[b-e-a-]	*
*M3/4	*M3/4	*
!	!LO:TX:a:B:t=TRIO	!
8B-L 8G 8E-\	2ee-\	p
8B- 8G 8E-\	.	.
8B- 8G 8E-\	.	.
8B- 8G 8E-\	.	.
.	16qqff/LL	.
.	16qqee-/JJ	.
8B- 8G 8E-\	8.dd\L	.
8B-J 8G 8E-\	.	.
.	16cc\Jk	.
=33	=33	=33
8B-L 8A- 8F 8D\	8b-\L	.
8B- 8A- 8F 8D\	8dd\	.
8B- 8A- 8F 8D\	8ff\	.
8B- 8A- 8F 8D\	8aa-\	.
8B- 8A- 8F 8D\	8.ccc\	.
8B-J 8A- 8F 8D\	.	.
.	16bb-\Jk	.
=34	=34	=34
8B-L 8G 8E-\	8gg\	.
8B- 8G 8E-\	4ee-\	.
8B- 8G 8E-\	.	.
8B- 8G 8E-\	16dd\LL	.
.	16ee-\JJ	.
8B- 8G 8E-\	16ff\LL	.
.	16ee-\	.
8B-J 8G 8E-\	16dd\	.
.	16cc\JJ	.
=35	=35	=35
8B-L 8A- 8F 8D\	8b-\L	.
8B- 8A- 8F 8D\	8dd\	.
8B- 8A- 8F 8D\	8ff\	.
8B- 8A- 8F 8D\	8aa-\	.
8B- 8A- 8F 8D\	8.ccc\	.
8B-J 8A- 8F 8D\	.	.
.	16bb-\Jk	.
=36	=36	=36
8B- 8G 8E-\	8gg\L	.
8r	16gg\L	.
.	16aa-\JJ	.
8B- 8G 8E-\	8bb-\L	.
8r	16bb-\L	.
.	16aa-\JJ	.
8B- 8G 8E-\	16gg\LL	.
.	16ee-\	.
8r	16ff\	.
.	16gg\JJ	.
!!LO:LB:g=original
=37	=37	=37
8c 8A- 8E-\	8aa-\L	.
8r	16aa-\L	.
.	16bb-\JJ	.
8c 8A- 8E-\	8ccc\L	.
8r	16ccc\L	.
.	16bb-\JJ	.
8c 8A- 8E-\	16aa-\LL	.
.	16gg\	.
8r	16ff\	.
.	16ee-\JJ	.
=38	=38	=38
8A- 8F 8D 8BB-\	8dd\L	.
8r	16dd\L	.
.	16ee-\JJ	.
8A- 8F 8D 8BB-\	8ff\L	.
8r	16ff\L	.
.	16ee-\JJ	.
8A- 8F 8D 8BB-\	16dd\LL	.
.	16b-\	.
8r	16cc\	.
.	16dd\JJ	.
=39	=39	=39
8GL 8E-\	16ee-\LL	.
.	16dd\	.
8A-J 8F 8BB-\	16gg\	.
.	16ff\JJ	.
8r	4ff\	.
8A- 8F 8BB-\	.	.
8G 8E-\	8ee-\	.
8r	8r	.
=40:|!|:	=40:|!|:;	=40:|!|:
*>E	*>E	*
8GL 8D 8BBn 8GG/	16gg\LL	f
.	16bbn\	.
16GL 16D 16BB 16GG/	16bb\	.
16GJJ 16D 16BB 16GG/	16ddd\JJ	.
8GL 8D 8BB 8GG/	16ddd\LL	.
.	16ccc\	.
8G 8D 8BB 8GG/	16ccc\	.
.	16bb\JJ	.
8G 8D 8BB 8GG/	16bb\LL	.
.	16aa-X\	.
8GJ 8D 8BB 8GG/	16aa-\	.
.	16gg\JJ	.
=41	=41	=41
8GL 8E-X 8C/	16ccc\LL	.
.	16gg\	.
16GL 16E- 16C/	16ff#X\	.
16GJJ 16E- 16C/	16gg\JJ	.
8GL 8E- 8C/	16aa-X\LL	.
.	16gg\	.
8G 8E- 8C/	16ff#\	.
.	16gg\JJ	.
8G 8E- 8C/	16ffn\LL	.
.	16ee-\	.
8GJ 8E- 8C/	16dd\	.
.	16cc\JJ	.
!!LO:LB:g=original
=42	=42	=42
8FL 8C 8AA 8FF/	16ff\LL	.
.	16aa\	.
16FL 16C 16AA 16FF/	16aa\	.
16FJJ 16C 16AA 16FF/	16ccc\JJ	.
8FL 8C 8AA 8FF/	16ccc\LL	.
.	16bb-X\	.
8F 8C 8AA 8FF/	16bb-\	.
.	16aa\JJ	.
8F 8C 8AA 8FF/	16aa\LL	.
.	16gg\	.
8FJ 8C 8AA 8FF/	16gg\	.
.	16ff\JJ	.
=43	=43	=43
8FL 8D 8BB-/	16bb-\LL	.
.	16ff\	.
16FL 16D 16BB-/	16een\	.
16FJJ 16D 16BB-/	16ff\JJ	.
8FL 8D 8BB-/	16gg\LL	.
.	16ff\	.
8F 8D 8BB-/	16ee\	.
.	16ff\JJ	.
8F 8D 8BB-/	16ee-X\LL	.
.	16dd\	.
8FJ 8D 8BB-/	16cc\	.
.	16b-\JJ	.
=44	=44	=44
8A-X 8F 8D 8BB-\	16bb-\LL	p
.	16aa-X\	.
8r	16aa-\	.
.	16gg\JJ	.
8A- 8F 8D 8BB-\	16bb-\LL	.
.	16aa-\	.
8r	16aa-\	.
.	16gg\JJ	.
8A- 8F 8D 8BB-\	16bb-\LL	.
.	16aa-\	.
8r	16aa-\	.
.	16gg\JJ	.
=45	=45	=45
2A- 2F 2D 2BB-\	16bb-\LL	.
.	16aa-X\	.
.	16aa-\	.
.	16gg\JJ	.
.	16gg\LL	.
.	16ff\	.
.	16ff\	.
.	16ee-X\JJ	.
4r	16ee-\LL	.
.	16dd\	.
.	16cc\	.
.	16b-\JJ	.
!	!LO:TX:b:i:t=Trio do Capo.	!
==	==	==
*-	*-	*-
!!!system-decoration: {(*)}
!!!ENC: Berenika Jozajtis
!!!END: 2022-07-27
!!!ENC: Andrzej Kubiczek
!!!END: 2022-08-24
